build/svg/cmd/sc_nextannotation.svg

<?xml version="1.0" encoding="UTF-8" standalone="no"?>
<svg
   xmlns:dc="http://purl.org/dc/elements/1.1/"
   xmlns:cc="http://creativecommons.org/ns#"
   xmlns:rdf="http://www.w3.org/1999/02/22-rdf-syntax-ns#"
   xmlns:svg="http://www.w3.org/2000/svg"
   xmlns="http://www.w3.org/2000/svg"
   xmlns:sodipodi="http://sodipodi.sourceforge.net/DTD/sodipodi-0.dtd"
   xmlns:inkscape="http://www.inkscape.org/namespaces/inkscape"
   viewBox="0 0 16 16"
   version="1.1"
   id="svg4"
   sodipodi:docname="sc_nextannotation.svg"
   inkscape:version="0.92.5 (2060ec1f9f, 2020-04-08)"
   inkscape:export-filename="/home/jupiter007/Libreoffice yaru theme fullcolor/build/cmd/sc_nextannotation.png"
   inkscape:export-xdpi="95"
   inkscape:export-ydpi="95">
  <metadata
     id="metadata10">
    <rdf:RDF>
      <cc:Work
         rdf:about="">
        <dc:format>image/svg+xml</dc:format>
        <dc:type
           rdf:resource="http://purl.org/dc/dcmitype/StillImage" />
      </cc:Work>
    </rdf:RDF>
  </metadata>
  <defs
     id="defs8" />
  <sodipodi:namedview
     pagecolor="#ffffff"
     bordercolor="#666666"
     borderopacity="1"
     objecttolerance="10"
     gridtolerance="10"
     guidetolerance="10"
     inkscape:pageopacity="0"
     inkscape:pageshadow="2"
     inkscape:window-width="1920"
     inkscape:window-height="1011"
     id="namedview6"
     showgrid="true"
     inkscape:zoom="45.254834"
     inkscape:cx="9.3433786"
     inkscape:cy="4.6411622"
     inkscape:window-x="1920"
     inkscape:window-y="32"
     inkscape:window-maximized="1"
     inkscape:current-layer="svg4">
    <inkscape:grid
       type="xygrid"
       id="grid823" />
  </sodipodi:namedview>
  <path
     sodipodi:nodetypes="ssscccsscsss"
     inkscape:connector-curvature="0"
     d="m 5,2.0024292 c -2,0 -3,0 -3,1.9999999 v 5.0000001 c 0,1.9999998 1,1.9999998 3,1.9999998 l 4,3 v -3 h 2 c 2,0 3,0 3,-1.9999998 v -1 -4.0000001 C 14,2.0024292 13,2.0024292 11,2.0024292 Z"
     style="opacity:0.6;fill:#000000;fill-opacity:1;fill-rule:nonzero;stroke:#000000;stroke-width:2;stroke-linecap:butt;stroke-linejoin:round;stroke-miterlimit:4;stroke-dasharray:none;stroke-dashoffset:0;stroke-opacity:1"
     id="path816" />
  <path
     id="rect823"
     style="opacity:1;fill:#fa9381;fill-opacity:1;fill-rule:nonzero;stroke:none;stroke-width:0.00106905;stroke-linecap:butt;stroke-linejoin:round;stroke-miterlimit:4;stroke-dasharray:none;stroke-dashoffset:0;stroke-opacity:1"
     d="m 5,2.0024292 c -2,0 -3,0 -3,1.9999999 v 5.0000001 c 0,1.9999998 1,1.9999998 3,1.9999998 l 4,3 v -3 h 2 c 2,0 3,0 3,-1.9999998 v -1 -4.0000001 C 14,2.0024292 13,2.0024292 11,2.0024292 Z"
     inkscape:connector-curvature="0"
     sodipodi:nodetypes="ssscccsscsss" />
  <path
     style="opacity:1;fill:#ffffff;fill-opacity:1;fill-rule:nonzero;stroke:none;stroke-width:0.00097591;stroke-linecap:butt;stroke-linejoin:round;stroke-miterlimit:4;stroke-dasharray:none;stroke-dashoffset:0;stroke-opacity:1"
     d="M 4.3333334,5.0024291 H 11.666666 C 11.851334,5.0024291 12,5.2254292 12,5.5024292 c 0,0.277 -0.148666,0.5 -0.333334,0.5 H 4.3333334 C 4.1486666,6.0024292 4,5.7794292 4,5.5024292 4,5.2254292 4.1486666,5.0024291 4.3333334,5.0024291 Z"
     id="path822"
     inkscape:connector-curvature="0"
     sodipodi:nodetypes="sssssss" />
  <path
     sodipodi:nodetypes="sssssss"
     inkscape:connector-curvature="0"
     id="path828"
     d="m 4.3333334,7.0024292 h 7.3333326 c 0.184668,0 0.333334,0.223 0.333334,0.5 0,0.277 -0.148666,0.5 -0.333334,0.5 H 4.3333334 C 4.1486666,8.0024292 4,7.7794292 4,7.5024292 c 0,-0.277 0.1486666,-0.5 0.3333334,-0.5 z"
     style="opacity:1;fill:#ffffff;fill-opacity:1;fill-rule:nonzero;stroke:none;stroke-width:0.00097591;stroke-linecap:butt;stroke-linejoin:round;stroke-miterlimit:4;stroke-dasharray:none;stroke-dashoffset:0;stroke-opacity:1" />
  <path
     sodipodi:nodetypes="cccccccc"
     style="opacity:0.6;fill:#000000;fill-opacity:1;stroke:#000000;stroke-width:2;stroke-linecap:butt;stroke-linejoin:round;stroke-miterlimit:4;stroke-dasharray:none;stroke-opacity:1"
     d="m 15.000052,11.50012 -4,3.5 v -2 H 7.0000518 v -3 H 11.000052 V 8.0001203 Z"
     id="path839"
     inkscape:connector-curvature="0" />
  <path
     sodipodi:nodetypes="cccccccc"
     id="path841"
     d="m 15.000052,11.50012 -4,3.5 v -2 H 7.0000518 v -3 H 11.000052 V 8.0001203 Z"
     style="fill:#ffffff;fill-opacity:1;stroke:none;stroke-width:1px;stroke-linecap:butt;stroke-linejoin:miter;stroke-opacity:1"
     inkscape:connector-curvature="0" />
</svg>

<svg xmlns="http://www.w3.org/2000/svg" viewBox="0 0 16 16"><path d="M5 2.002c-2 0-3 0-3 2v5c0 2 1 2 3 2l4 3v-3h2c2 0 3 0 3-2v-5c0-2-1-2-3-2z" opacity=".6" stroke="#000" stroke-width="2" stroke-linejoin="round"/><path d="M5 2.002c-2 0-3 0-3 2v5c0 2 1 2 3 2l4 3v-3h2c2 0 3 0 3-2v-5c0-2-1-2-3-2z" fill="#fa9381"/><path d="M4.333 5.002h7.334c.184 0 .333.223.333.5s-.149.5-.333.5H4.333c-.184 0-.333-.223-.333-.5s.149-.5.333-.5zM4.333 7.002h7.334c.184 0 .333.223.333.5s-.149.5-.333.5H4.333c-.184 0-.333-.223-.333-.5s.149-.5.333-.5z" fill="#fff"/><path d="M15 11.5L11 15v-2H7v-3h4V8z" opacity=".6" stroke="#000" stroke-width="2" stroke-linejoin="round"/><path d="M15 11.5L11 15v-2H7v-3h4V8z" fill="#fff"/></svg>
